!!!COM:  Berbiguier, Antoine
!!!OTL:  Etude No. 12
!!!OMB:  Royal Conservatory Grade 8 
!!!YEC:  Copyright 2001, Joy Ollen
!!!YEM:  Rights to all derivative electronic formats reserved.
!! [Prestissimo]
**kern	**dynam
*MM86.7	*
*clefG2	*
*k[b-e-a-d-g-]	*
*M12/8	*
=-	=-
8b-'	mp
(8f^	<
8en	(
8f	(
8gn	(
8an	(
.	Xmf
8b-)	.
.	Xmp
(8f^	<
8e-	(
8f	(
8g-	(
8a-	(
=2	=2
8b-)	Xmf
.	Xmp
(8an	<
8b-	(
8c	(
8b-	(
8c	(
4.d-	z
4.b-)	Xmp
=3	=3
(8gg-	.
8ff)	.
8gg-'	.
(8gg-	.
8ff)	.
8gg-	.
(8ff	.
8een)	.
8ff'	.
(8ff	.
8een)	.
8ff'	.
=4	=4
2.eentR;	z
2.f;,	.
=5	=5
8b-'	<
(8f^	(
8en	(
8f	(
8gn	(
8an	(
.	Xmf
.	[
8b-)	Xmp
(8f^	<
8e-	(
8f	(
8gn	(
8an	(
=6	=6
8b-)	Xmf
.	[
.	Xmp
(8an	<
8b-	(
8cc	(
8b-	(
8cc	(
4.dd-	z
4.b-)	Xmf
=7	=7
(8gg-	>
8ff)	)
8gg-'	Xmp
(8gg-	.
8ff)	.
8gg-'	.
(8ff	.
8een)	.
8ff'	.
(8ff	.
8een)	.
8ff'	.
=8	=8
8ee-	>
(8bb-	)
8aa-	)
8gg-	)
8ff	)
8ee-)	)
4dd-	Xp
8r	.
4.r	.
=9	=9
.	Xmp
(8ff	>
8an)	)
8an'	)
4.an~	Xp
.	Xmp
(8ff	>
8b-)	)
8b-'	)
4.b-~	Xp
=10	=10
(8ff	Xmp
8gg-	.
8ff	.
8ee-	.
8dd-	.
8cc)	.
(4.dd-	>
4.b-)	)
=11	=11
.	Xmp
(8ff	>
8an)	)
8an'	Xp
4.an~	.
.	Xmp
(8ff	>
8b-)	)
8b-'	Xp
4.b-~	.
=12	=12
(8bb-	Xmp
8aa-)	.
8gg-'	.
(8gg-	.
8ff)	.
8een'	.
(8ff	.
8gg-)	.
8ff'	.
(8ff	.
8gg-)	.
8ff'	.
=13	=13
(8ff	.
8gg-)	.
8ff'	.
(8ff	.
8gg-)	.
8ff'	.
(8ff	.
8gg-)	.
8ff'	.
(8ee-	.
8dd-)	.
8cc	.
=14	=14
8b-'	.
(8f	>
8en	)
8f	)
8gn	)
8an	)
8b-)	Xp
.	Xmp
(8f	>
8en	)
8f	)
8gn	)
8an	)
=15	=15
8b-)	Xp
(8an	.
8b-	.
8cc	.
8b-	.
8cc	.
4.dd-	.
4.b-),	.
=16	=16
(8gg-	Xmp
8ee-)	.
8cc'	.
(8cc	.
8ee-)	.
8gg-'	.
(8ff	.
8dd-)	.
8b-'	.
(8b-	.
8d-)	.
8ff'	.
=17	=17
8cc'	.
(8gg-	.
8ff)	.
(8ee-	.
8dd-)	.
8cc'	.
8b-'	p
(8ff	.
8dd-)	.
8b-'	.
(8ff	.
8dd-)	.
=18	=18
8b-'	.
(8gg-	.
8dd-)	.
8b-'	.
(8gg-	.
8dd-)	.
8b-'	.
(8ff	.
8dd-)	.
8b-'	.
(8ff	.
8dd-)	.
=19	=19
8b-'	.
(8een	.
8dd-)	.
8b-'	.
(8een	.
8dd-)	.
8b-'	.
(8ff	.
8dd-)	.
8b-'	.
(8ff	.
8dd-)	.
=20	=20
8b-'	.
(8gg-	.
8dd-)	.
8b-'	.
(8gg-	.
8dd-)	.
8b-'	.
(8ff	.
8dd-)	.
8b-'	.
(8ff	.
8dd-)	.
=21	=21
8b-'	.
(8een	.
8dd-)	.
8b-'	.
(8een	.
8dd-)	.
8b-',	.
(8ff	.
8dd-)	.
8b-'	.
(8gg-	.
8dd-)	.
=22	=22
8b-'	.
(8ff	.
8dd-)	.
8b-'	.
(8een	.
8dd-)	.
8b-'	.
(8ff	.
8dd-)	.
8b-	.
(8gg-	.
8dd-)	.
=23	=23
8b-'	.
(8ff	.
8dd-)	.
8b-'	.
(8een	.
8dd-),	.
(8f	.
8g-	.
8gn	.
8a-	.
8an	.
8b-	.
=24	=24
8bn	.
8cc	.
8dd-	.
8ddn	.
8ee-	.
8een	.
8ff	.
8gg-	.
8ggn	.
8aa-	.
8aan	.
8bb-	.
=25	=25
8bbn	.
8ccc	.
8ddd-	.
8dddn	.
8eee-	.
8eeen	.
4.fff	.
(4.f	f
=26	=26
4.g-)	.
(4.ggg-	>
4.gggn)	)
(4.en	Xmf
=27	=27
4.f)	.
2.fff	>
4.ddd-	)
=28	=28
2.ccc^t	Xmp
(2.ccc^	.
=29	=29
8bb-)	>
(8fff	)
8eee-	)
8ddd-	)
8ccc	)
8bb-	)
8aan)	Xp
.	Xmp
(8ggg-	>
8fff	)
8eee-	)
8ddd-	)
8ccc	)
=30	=30
8bb-)	Xp
.	Xmp
(8ff^	>
8ee-	)
8dd-	)
8cc	)
8b-	)
8an)	Xp
.	Xmp
(8gg-^	>
8ff	)
8ee-	)
8dd-	)
8cc)	)
.	Xp
=31	=31
(8b-^	Xmp
8dd-)	.
8ff'	.
(8an^	.
8cc)	.
8ff'	.
(8b-^	.
8dd-)	.
8ff'	.
(8an^	.
8cc)	.
8ff'	.
=32	=32
4b-~	.
8r	.
4ddd-~	.
8r	.
4b-~	.
8r	.
4.r	.
==	==
*-	*-
